%
O00001001
(T2 D=6. CR=0. - ZMIN=-1.5 - FLAT END MILL)
G90 G94 G17
G21
G91
G28 Z0.
G90
(FACE1)
M0
(T2 D=6. CR=0. - FLAT END MILL)
S11000 M3
G17 G90 G94
G54
G0 X86.4 Y-43.864
G43 Z15. H2
G0 Z5.
G1 Z-0.9 F233.3
G18 G3 X85.8 Z-1.5 I-0.6 F700.
G1 X85.51
X-85.51
G17 G2 Y-39.77 J2.047
G1 X85.51
G3 Y-35.676 J2.047
G1 X-85.51
G2 Y-31.582 J2.047
G1 X85.51
G3 Y-27.488 J2.047
G1 X-85.51
G2 Y-23.395 J2.047
G1 X85.51
G3 Y-19.301 J2.047
G1 X-85.51
G2 Y-15.207 J2.047
G1 X85.51
G3 Y-11.113 J2.047
G1 X-85.51
G2 Y-7.019 J2.047
G1 X85.51
G3 Y-2.925 J2.047
G1 X-85.51
G2 Y1.169 J2.047
G1 X85.51
G3 Y5.263 J2.047
G1 X-85.51
G2 Y9.357 J2.047
G1 X85.51
G3 Y13.451 J2.047
G1 X-85.51
G2 Y17.545 J2.047
G1 X85.51
G3 Y21.638 J2.047
G1 X-85.51
G2 Y25.732 J2.047
G1 X85.51
G3 Y29.826 J2.047
G1 X-85.51
G2 Y33.92 J2.047
G1 X85.51
G3 Y38.014 J2.047
G1 X-85.51
G2 Y42.108 J2.047
G1 X85.51
G18 G2 X86.11 Z-0.9 K0.6
G0 Z15.
G17
G91
G28 Z0.
G90
M5
G91
G28 X0. Y0.
G90
M30
%
