%
O00001001 (ML)
(T1 D=3.175 CR=0. - ZMIN=-5. - FLAT END MILL)
G90 G94 G17
G21
G91
G28 Z0.
G90
(2D POCKET2)
M0
(T1 D=3.175 CR=0. - FLAT END MILL)
S8000 M3
G17 G90 G94
G54
G0 X-68.597 Y44.973
G43 Z15. H1
G0 Z5.
G1 Z1. F450.
Z-5.
G4 P100
G1 Y-44.973 F150.
Z15. F600.
G0 X-58.74 Y44.973
Z5.

G1 Z-5. F450.
G4 P100
G1 Y-44.973 F150.
Z15. F600.
G0 X-48.883 Y44.973
Z5.

G1 Z-5. F450.
G4 P100
G1 Y-44.973 F150.
Z15. F600.
G0 X-39.026 Y44.973
Z5.

G1 Z-5. F450.
G4 P100
G1 Y-44.973 F150.
Z15. F600.
G0 X-29.168 Y44.973
Z5.

G1 Z-5. F450.
G4 P100
G1 Y-44.973 F150.
Z15. F600.
G0 X-19.311 Y44.973
Z5.

G1 Z-5. F450.
G4 P100
G1 Y-44.973 F150.
Z15. F600.
G0 X-9.454 Y44.973
Z5.

G1 Z-5. F450.
G4 P100
G1 Y-44.973 F150.
Z15. F600.
G0 X0.403 Y44.973
Z5.

G1 Z-5. F450.
G4 P100
G1 Y-44.973 F150.
Z15. F600.
G0 X10.26 Y44.973
Z5.

G1 Z-5. F450.
G4 P100
G1 Y-44.973 F150.
Z15. F600.
G0 X20.117 Y44.973
Z5.

G1 Z-5. F450.
G4 P100
G1 Y-44.973 F150.
Z15. F600.
G0 X29.975 Y44.973
Z5.

G1 Z-5. F450.
G4 P100
G1 Y-44.973 F150.
Z15. F600.
G0 X39.832 Y44.973
Z5.

G1 Z-5. F450.
G4 P100
G1 Y-44.973 F150.
Z15. F600.
G0 X49.689 Y44.973
Z5.

G1 Z-5. F450.
G4 P100
G1 Y-44.973 F150.
Z15. F600.
G0 X59.546 Y44.973
Z5.

G1 Z-5. F450.
G4 P100
G1 Y-44.973 F150.
Z15. F600.
G0 X69.403 Y44.973
Z5.

G1 Z-5. F450.
G4 P100
G1 Y-44.973 F150.
Z15. F600.
G0 Y44.973


G0 Z15.
G91
G28 Z0.
G90
M5
G91
G28 X0. Y0.
G90
M30
%
